icons/op-info1-24.svg

<svg width="24" height="24" viewBox="0 0 24 24" fill="none" xmlns="http://www.w3.org/2000/svg">
<path d="M14.102 15.6706C14.102 15.7961 14.0706 15.8275 13.9137 15.8275H10.7765C10.6196 15.8275 10.6196 15.7961 10.6196 15.6706V14.8549C10.6196 14.7294 10.6196 14.698 10.7765 14.698H11.5608V10.902H10.7765C10.6196 10.902 10.5882 10.8706 10.5882 10.7137V9.92941C10.5882 9.77255 10.6196 9.74118 10.7765 9.74118H12.9725C13.098 9.74118 13.1294 9.77255 13.1294 9.92941V14.698H13.9137C14.0706 14.698 14.102 14.7294 14.102 14.8549V15.6706ZM12.3451 8.95686C11.7804 8.95686 11.3098 8.48627 11.3098 7.92157C11.3098 7.35686 11.7804 6.91765 12.3451 6.91765C12.9098 6.91765 13.349 7.35686 13.349 7.92157C13.349 8.48627 12.9098 8.95686 12.3451 8.95686ZM12 4C7.57647 4 4 7.57647 4 12C4 16.4235 7.57647 20 12 20C16.4235 20 20 16.4235 20 12C20 7.57647 16.4235 4 12 4ZM12 18.8078C8.23529 18.8078 5.16078 15.7647 5.16078 12C5.16078 8.23529 8.23529 5.16078 12 5.16078C15.7647 5.16078 18.8392 8.23529 18.8392 12C18.8392 15.7647 15.7647 18.8078 12 18.8078Z" fill="black"/>
</svg>

<svg xmlns="http://www.w3.org/2000/svg" width="24" height="24" viewBox="0 0 24 24"><path d="M14.102 15.671c0 .125-.031.157-.188.157h-3.137c-.157 0-.157-.032-.157-.157v-.816c0-.126 0-.157.157-.157h.784v-3.796h-.784c-.157 0-.189-.031-.189-.188v-.785c0-.156.032-.188.189-.188h2.196c.125 0 .156.032.156.188v4.769h.785c.157 0 .188.031.188.157v.816Zm-1.757-6.714a1.044 1.044 0 0 1-1.035-1.035c0-.565.47-1.004 1.035-1.004a.99.99 0 0 1 1.004 1.004c0 .564-.439 1.035-1.004 1.035ZM12 4c-4.424 0-8 3.576-8 8 0 4.424 3.576 8 8 8 4.424 0 8-3.576 8-8 0-4.424-3.576-8-8-8Zm0 14.808c-3.765 0-6.839-3.043-6.839-6.808 0-3.765 3.074-6.839 6.839-6.839 3.765 0 6.839 3.074 6.839 6.839 0 3.765-3.074 6.808-6.839 6.808Z"/></svg>
